packages/icons/svg/Instruction_Service_PurchaseHelp_Loading_48px.svg

<svg xmlns="http://www.w3.org/2000/svg" viewBox="0 0 48 48"><path d="M42.5 35a1.5 1.5 0 00-1.5 1.5V41H7v-4.5a1.5 1.5 0 00-3 0V42a2 2 0 002 2h36a2 2 0 002-2v-5.5a1.5 1.5 0 00-1.5-1.5z"/><path d="M24 24a1.5 1.5 0 00-1.5 1.5v9.35l-2.73-1.64a1.5 1.5 0 10-1.54 2.58L23 38.63a2 2 0 002.06 0l4.74-2.84a1.5 1.5 0 10-1.54-2.58l-2.76 1.64V25.5A1.5 1.5 0 0024 24z"/><path d="M11 29.42l3.76 2.33a1.5 1.5 0 101.58-2.56l-3.29-2V15.65l10 6a2 2 0 002.06 0l10-6v11.51l-3.29 2a1.5 1.5 0 001.58 2.56l3.76-2.33a2 2 0 001-1.7V13.28a2 2 0 00-1-1.71L25 4.37a2 2 0 00-2.06 0L11 11.56a2 2 0 00-1 1.72v14.44a2 2 0 001 1.7zm13-10.67L14.42 13l3.41-2 9.6 5.75zm0-11.5L33.58 13l-3.24 2-9.59-5.8z"/></svg>

<svg xmlns="http://www.w3.org/2000/svg" viewBox="0 0 48 48"><defs></defs><g id="Icon"><path  d="M42.5,35A1.5,1.5,0,0,0,41,36.5V41H7V36.5a1.5,1.5,0,0,0-3,0V42a2,2,0,0,0,2,2H42a2,2,0,0,0,2-2V36.5A1.5,1.5,0,0,0,42.5,35Z"/><path  d="M24,24a1.5,1.5,0,0,0-1.5,1.5v9.35l-2.73-1.64a1.5,1.5,0,1,0-1.54,2.58L23,38.63a2,2,0,0,0,2.06,0l4.74-2.84a1.5,1.5,0,1,0-1.54-2.58L25.5,34.85V25.5A1.5,1.5,0,0,0,24,24Z"/><path  d="M11,29.42l3.76,2.33a1.5,1.5,0,1,0,1.58-2.56l-3.29-2V15.65l10,6a2,2,0,0,0,2.06,0l10-6V27.16l-3.29,2a1.5,1.5,0,0,0,1.58,2.56l3.76-2.33a2,2,0,0,0,1-1.7V13.28a2,2,0,0,0-1-1.71L25,4.37a2,2,0,0,0-2.06,0L11,11.56a2,2,0,0,0-1,1.72V27.72A2,2,0,0,0,11,29.42ZM24,18.75,14.42,13,17.83,11l9.6,5.75Zm0-11.5L33.58,13,30.34,15,20.75,9.2Z"/></g></svg>
